icons/remove-from-list-24.svg

<?xml version="1.0" encoding="UTF-8"?><svg id="icons" xmlns="http://www.w3.org/2000/svg" viewBox="0 0 24 24"><defs><style>.cls-1{fill:none;}.cls-1,.cls-2{stroke-width:0px;}</style></defs><path class="cls-2" d="M9,20h13v1h-13v-1ZM6,6H2V2h4v4ZM5,3h-2v2h2v-2ZM9,4v1h13v-1h-13ZM2,18h4v4H2v-4ZM3,21h2v-2h-2v2ZM9,13h13v-1h-13v1ZM4.56641,12l2.7168,2.7168-.56641.56641-2.7168-2.7168-2.7168,2.7168-.56641-.56641,2.7168-2.7168-2.7168-2.7168.56641-.56641,2.7168,2.7168,2.7168-2.7168.56641.56641-2.7168,2.7168Z"/><rect class="cls-1" width="24" height="24"/></svg>

<svg xmlns="http://www.w3.org/2000/svg" viewBox="0 0 24 24"><path d="M9 20h13v1H9v-1zM6 6H2V2h4v4zM5 3H3v2h2V3zm4 1v1h13V4H9zM2 18h4v4H2v-4zm1 3h2v-2H3v2zm6-8h13v-1H9v1zm-4.434-1l2.717 2.717-.566.566L4 12.566l-2.717 2.717-.566-.566L3.434 12 .717 9.283l.566-.566L4 11.434l2.717-2.717.566.566L4.566 12z" stroke-width="0"/><path stroke-width="0" fill="none" d="M0 0h24v24H0z"/></svg>
